src/lib/packages/icons/src/assets/line/bell-notification.svg

<svg xmlns="http://www.w3.org/2000/svg" width="24" height="24" fill="none"><path fill="currentColor" d="M12.005 21.75a2.728 2.728 0 0 1-2.378-1.373.75.75 0 1 1 1.296-.754c.458.785 1.705.787 2.164 0a.751.751 0 0 1 1.296.756 2.732 2.732 0 0 1-2.378 1.371Zm8.671-3.425a.75.75 0 0 0-.09-.793c-.018-.023-1.835-2.326-1.835-5.031V10a.75.75 0 0 0-1.5 0v2.5c0 1.936.748 3.658 1.365 4.75H5.387c.617-1.092 1.365-2.814 1.365-4.75V9a5.256 5.256 0 0 1 5.25-5.25.75.75 0 0 0 0-1.5A6.758 6.758 0 0 0 5.252 9v3.5c0 2.689-1.818 5.009-1.836 5.032a.75.75 0 0 0 .587 1.218h16a.749.749 0 0 0 .673-.425ZM19.75 5A2.753 2.753 0 0 0 17 2.25 2.753 2.753 0 0 0 14.25 5 2.753 2.753 0 0 0 17 7.75 2.753 2.753 0 0 0 19.75 5Zm-1.5 0c0 .689-.561 1.25-1.25 1.25S15.75 5.689 15.75 5s.561-1.25 1.25-1.25 1.25.561 1.25 1.25Z"/></svg>

<svg width="24" height="24" viewBox="0 0 24 24" fill="none" xmlns="http://www.w3.org/2000/svg">
<path d="M12.005 21.75C11.017 21.75 10.128 21.237 9.627 20.377C9.419 20.019 9.53999 19.56 9.89799 19.352C10.255 19.143 10.715 19.264 10.923 19.623C11.381 20.408 12.628 20.41 13.087 19.623C13.296 19.265 13.756 19.145 14.113 19.353C14.471 19.561 14.592 20.021 14.383 20.379C13.881 21.237 12.993 21.75 12.005 21.75ZM20.676 18.325C20.801 18.065 20.766 17.757 20.586 17.532C20.568 17.509 18.751 15.206 18.751 12.501V10C18.751 9.586 18.415 9.25 18.001 9.25C17.587 9.25 17.251 9.586 17.251 10V12.5C17.251 14.436 17.999 16.158 18.616 17.25H5.38699C6.00399 16.158 6.752 14.436 6.752 12.5V9C6.752 6.105 9.107 3.75 12.002 3.75C12.416 3.75 12.752 3.414 12.752 3C12.752 2.586 12.416 2.25 12.002 2.25C8.28 2.25 5.252 5.278 5.252 9V12.5C5.252 15.189 3.434 17.509 3.416 17.532C3.237 17.757 3.202 18.066 3.328 18.325C3.453 18.584 3.715 18.75 4.003 18.75H20.003C20.288 18.75 20.551 18.585 20.676 18.325ZM19.75 5C19.75 3.484 18.517 2.25 17 2.25C15.483 2.25 14.25 3.484 14.25 5C14.25 6.516 15.483 7.75 17 7.75C18.517 7.75 19.75 6.516 19.75 5ZM18.25 5C18.25 5.689 17.689 6.25 17 6.25C16.311 6.25 15.75 5.689 15.75 5C15.75 4.311 16.311 3.75 17 3.75C17.689 3.75 18.25 4.311 18.25 5Z" fill="currentColor"/>
</svg>
